X:1
T:Adoren los hombres
T:Francisco Valls (1665-1747)
T:From "Mapa Armónico Práctico"  (1742) folio 138 verso to 140 verso.
T:Adoren los hombres
T:Villancico a 3 al nacimiento de Nuestro Señor Jesu Cristo. Trocados a 3
T:Copyright © 
T:Copyright © 
T:Copyright © 
T:Copyright © 
T:Copyright © 
T:Copyright © 
T:Copyright © 
T:Copyright © 
T:Copyright © 
T:Copyright © 
T:Copyright © 
T:Copyright © 
T:Copyright © 
T:Copyright © 
C:Francisco Valls (1665-1747)
Z:From "Mapa Armónico Práctico"  (1742)
Z:folio 138 verso to 140 verso.
Z:Copyright ©
%%score [ 1 2 3 ] 4
L:1/8
M:3/4
K:F
V:1 treble nm="[Soprano]" snm="S."
V:2 treble nm="[Soprano]" snm="S."
V:3 treble-8 transpose=-12 nm="[Tenor]" snm="T."
V:4 bass nm="Continuo" snm="Cont."
V:1
"^[Estribillo]" z6 | z6 | z6 | z4 B2 | A2 G2 A2 | B2 B3 _A | G2 F2 _E2 | F2 _E2 (FE) | D4 z2 | z6 | %10
w: |||A-|do- ren los|hom- bres fi-|ne- zas de\_a-|mor, de a- *|mor.||
 z6 | z6 | z4 F2 | G2 _A2 G2 | F2 F3 E | D2 C2 D2 | _E2 E2 c2- | cB B3 A | B6 | z2 _A2 A2- | %20
w: ||A-|do- ren los|hom- bres fi-|ne- zas de\_a-|mor, fi- ne-|* * zas de\_a-|mor,|que\_a- man-|
 A2 G_A GF | =E2 F3 F | F2 E2 c2 | c2 BA Bc | A2 z2 d2 | d2 cB cd | B2 c2 B2 | A6 | z6 | z4 B2 | %30
w: * te\y _ des- *|nu- do\_en du-|ra pri- sión,|du- ra _ pri- *|sión, des-|nu- do _ en _|du- ra pri-|sión,||que\_a-|
 c6 | =B2 c4 | d6 | c2 d4 | _e6 | d2 _e4 | f6 | z2 f3 f | =B2 _e4 | =A2 B4 | z2 _A3 A | _A2 G4 | %42
w: man-|te\_y des-|nu-|do\_en du-|ra|pri- *|sión.|Llo- ra|co- mo|ni- ño,|y\_a- ma|co- mo|
 F2 f3 f | _e4 f2 | d2 _e2 e2 | f4 z2 | z6 | z4 f2 | e2 d2 e2 | f2 f3 _e | d2 c2 B2 | c4 c2 | f6 | %53
w: dios, y\_a- ma|co- mo|dios, co- mo|dios.||A-|do- ren los|hom- bres fi-|ne- zas de\_a-|mor, de\_\_a-|mor,|
 B4 _e2 | d2 c3 c | B6 | z6 | z2 _e2 e2- | e2 dc d_e | c2 dc dc | =B2 c3 c | c2 Bc d_e | c2 _d3 d | %63
w: fi- ne-|zas de a-|mor.||que\_a- man-|* te\y _ des- *|nu- da _ en _|du- ra pri-|sión du- * ra _|pri- sión, en|
 _d2 c2 c2 | B6 | z6 | z6 | c2 _d4 | c4 c2 | B2 z2 _ee | A2 _d4 | G2 _A2 A2- | A_A G2 G2 | F4 f2 | %74
w: du- ra pri-|sión.|||y\_a- ma|co- mo|dios, llo- ra|co- mo|ni- ño, y\_a-|* ma co- mo|dios. Y\_en|
 d2 d2 d2 | _e6- | e2 d4 | z6 | z4 f2 | d2 _e3 e | =A6 | z6 | z4 c2 | B2 B2 f2 | d2 _e3 e | =A6 | %86
w: dul- ce con-|go-|* ja,||en|fi- na pa-|sión,||pa-|sión, y en|tier- no fer-|vor.|
 z6 | z6 | z2 B3 B | E2 _A4 | D2 _E4 | z2 _d3 d | _d2 c4 | B2 c2 B2 | A6 | z2 g4- | g2 f4- | %97
w: ||Llo- ra|co- mo|ni- ño|y\_a- ma|co- mo|dios, co- mo|dios,|y|* a-|
 f2 _e2 d2 | c2 (d2 _e2) | d12 ||"^CoplasDespacio [Adagio]" z4 F2 | G2 _E2 B2- | B2 _A3 A | %103
w: * ma co-|* mo _|dios.|A-|do- ren fi-|* nos ex-|
 G2 _E2 _e2- | e2 d4 | =B2 c2 c2- | c2 =B4 | c6 | z2 c2 c2 | f4 _e2 | d2 (c2 B2) | A2 F2 d2- | %112
w: ce- sos del|_ que\_hu-|ma- no des-|* cen-|dió|a\_e- le-|var la|cria tu- *|ra en las|
 d2 c4 | A2 B2 B2- | B2 A4 | B6 || z4 f2 | d2 d2 d2 | _e6- | e2 d4 | z6 | z4 f2 | d2 _e3 e | %123
w: _ _|a- las del-|* a-|mor.|Y\_en|dul- ce con-|go-|* ja,||en|tris- te do-|
 A4 z2 | d2 G2 _e2- | e2 d4 | c2 c2 c2 | B2 z2 z2 | c2 F2 B2- | B2 A4 | B6 || z6 | z6 | z6 | z6 | %135
w: lor,|y\_a- ma co-|* mo|dios, co- mo|dios,|y\_a- ma co-|* mo|dios.|||||
 z6 | z6 | z6 | z6 | z6 | z6 | z6 | z6 | z6 | z6 | z6 | z6 | z6 || z6 | z6 | z6 | z4 B2 | %152
w: ||||||||||||||||Y\_en|
 G2 G2 G2 | _A6- | A2 G4 | z6 | z6 | z6 | B3 B =E2 | D2 _E2 E2- | E2 D4 | C2 c4 | F6 || z6 | z6 | %165
w: no- ble sus-|pi-|* ro,||||y\_a- ma co-|mo dios, y\_a-|* ma|co- mo|dios.|||
 z6 | z6 | z6 | z6 | z6 | z6 | z6 | z6 | z6 | z6 | z6 | z6 | z6 | z6 | z6 || z6 | z6 | z4 c2 | %183
w: |||||||||||||||||en|
 A2 B3 B | =E4 z2 | z4 c2 | f2 B3 B | c2 f3 f | =B2 _e4 | =A2 B2 z2 | G2 C2 _A2- | A2 G4 | =A2 B4 | %193
w: tier- no fa-|vor,|en|tier- no fa-|vor, llo- ra|co- mo|ni- ño,|y\_a- ma co-|* mo|dios, y\_a-|
 =E2 F2 _E2 | D6 |] %195
w: ma co- mo|dios.|
V:2
 z6 | z6 | z4 F2 | G2 _A2 G2 | F2 F3 _E | D2 C2 D2 | _E2 E2 (c2- | cB) B3 A | B4 z2 | z6 | z4 B2 | %11
w: ||A-|do- ren los|hom- bres fi-|ne- zas de\_a-|mor, fi- ne-|* * zas de\_a-|mor.||A-|
 A2 G2 A2 | B2 B3 _A | G2 F2 _E2 | F4 c2 | F6 | B4 _e2 | d2 c3 c | F6 | z6 | z2 B2 B2- | B2 AG AB | %22
w: do- ren los|hom- bres fi-|ne- zas de\_a-|mor, fi-|ne-|zas, fi-|ne- zas de\_a-|mor,||que\_a- man-|* te\y _ des- *|
 G2 AG AG | ^F2 G3 G | G2 FG _AB | G2 _A3 A | _A2 G2 G2 | F6 | z2 _A2 A2- | A2 G_A GF | E2 F3 F | %31
w: nu- do _ en _|du- ra pri-|sión, des- * nu- *|do\_en du- ra,|du- ra pri-|sión,|que\_a- man-|* te\y _ des- *|nu- do\_en du-|
 F2 E2 c2 | c2 BA Bc | A2 z2 d2 | d2 cBcd | B2 c2 B2 | A6 | z6 | z6 | c2 _d4 | c4 c2 | B2 z2 _ee | %42
w: ra pri- sión,|du- ra _ pri- *|sión, des-|nu- do\en _ _ _|du- ra pri-|sión.|||y\_a- ma|co- mo|dios, y a-|
 =A2 _d4 | =G2 _A2 A2- | A_A G2 G2 | F4 z2 | z6 | z6 | z6 | z6 | z4 B2 | A2 G2 A2 | B2 B3 _A | %53
w: ma co-|mo dios y\_a-|* ma co- mo|dios.|||||A-|do- ren los|hom- bres fi-|
 G2 F2 _E2 | F2 _E2 FE | D6 | z6 | z4 _E2 | F6 | E2 F4 | G6 | ^F2 G4 | _A6 | G2 _A4 | B6 | z6 | %66
w: ne- zas de\_a-|mor, de a- *|mor.||que\_a-|man-|te\_y des-|nu-|do en|du-|ra pri-|sión.||
 z6 | z2 B3 B | E2 _A4 | D2 _E4 | z2 _d3 d | _d2 c4 | B2 c2 B2 | A4 z2 | z6 | z6 | z4 B2 | %77
w: |Lo- ra|co- mo|ni- ño|y\_a- ma|co- mo|dios, co- mo|dios.|||en|
 G2 G2 G2 | _A6- | A2 G4 | z6 | z4 B2 | G2 _A3 A | D4 D2 | B2 _E3 E | F6 | z2 f3 f | =B2 _e4 | %88
w: no- ble sus-|pi-|* ro,||y\_en|tris- te do-|lor, y\_en|tier- no fer-|vor.|Llo- ra|co- mo|
 A2 B4 | z2 _A3 A | _A2 G4 | F2 F3 F | _E2 F2 E2 | D2 _E2 E2 | F6 | z2 _e4- | e2 d4- | d2 c2 B2 | %98
w: ni- ño|y\_a- ma|co- mo|dios, y a-|ma, y a-|ma co- mo|dios,|y|* a-|* ma co-|
 B2 A4 | B12 || z6 | z6 | z6 | z6 | z6 | z6 | z6 | z6 | z6 | z6 | z6 | z6 | z6 | z6 | z6 | z6 || %116
w: mo _|dios.|||||||||||||||||
 z6 | z6 | z6 | z4 B2 | G2 G2 G2 | _A6- | A2 G4 | z6 | z6 | z2 B3 B | E2 _A4 | D2 _E2 E2- | E2 D4 | %129
w: |||Y\_en|dul- ce con-|go-|* ja,|||llo- ra|co- mo|ni- ño y\_a-|* ma|
 C2 c4 | F6 || z6 | z6 | z6 | z6 | z6 | z6 | z6 | z6 | z6 | z6 | z6 | z6 | z6 | z6 | z6 | z6 | %147
w: co- mo|dios.|||||||||||||||||
 z6 || z6 | z6 | z4 c2 | A2 B3 B | =E6 | z4 c2 | f2 B3 B | c2 f3 f | =B2 _e4 | =A2 B2 z2 | %158
w: |||en|fi- na pa-|sión,|en|fi- na pa-|sión, llo- ra|co- mo|ni- ño|
 G2 B,2 _A2- | A2 G4 | (A2 B4) | E2 F2 _E2 | D6 || z6 | z4 F2 | G2 _E2 B2- | B2 _A3 A | %167
w: y\_a- ma co-|* mo|dios, _|co- * mo|dios.||A-|do- ren tier-|* nos sus-|
 G2 _E2 _e2- | e2 d4 | =B2 c2 c2- | c2 =B4 | c6 | z4 c2 | f2 f2 _e2 | d2 (c2 B2) | A2 F2 d2- | %176
w: pi- ros del|_ que\_a-|brien- do\_el co-|* ra-|zón.|La-|brar sa- be\_a|los in- *|gra- tos con|
 d2 c4 | A2 B2 B2- | B2 A4 | B6 || z4 F2 | D2 D2 D2 | _E6- | E2 D4 | z6 | z4 f2 | d2 _e3 e | %187
w: _ los|gol- pes del|_ fa-|vor.|Y\_en|an- sias con-|stan-|* tes,||en|tier- no fa-|
 =A4 z2 | d2 G2 _e2- | e2 d4 | c2 c2 c2 | B2 z2 z2 | c2 F2 B2- | B2 A4 | B6 |] %195
w: vor,|y\_a- ma co-|* mo|dios, co- mo|dios,|y\_a- ma co-|* mo|dios.|
V:3
 z4 B2 | A2 G2 A2 | B2 B2 _A2 | G2 F2 _E2 | F4 F2 | B6 | _E4 _e2 | d2 c3 c | B4 z2 | z6 | z6 | z6 | %12
w: A-|do- ren los|hom- bres fi-|ne- zas de\_a-|mor, a-|do-|ren fi-|ne- zas de\_a-|mor,||||
 z6 | z4 B2 | A2 G2 A2 | B2 B3 _A | G2 F2 _E2 | F2 _E2 FE | D6 | z6 | z4 B2 | c6 | =B2 c4 | d6 | %24
w: |A-|do- ren los|hom- bres fi-|ne- zas de\_a-|mor, de a- *|mor,||que\_a-|man-|te\_y des-|nu-|
 c2 d4 | _e6 | d2 _e4 | f6 | z6 | z2 B2 B2- | B2 AG AB | G2 AG AG | ^F2 G3 G | G2 FG _AB | %34
w: do en|du-|ra pri-|sión,||que\_a- man-|* te\y _ des- *|nu- do, _ que _|a- man- te\_y|des- nu- * * *|
 G2 _A3 A | _A2 G2 G2 | F6 | z6 | z6 | z2 B3 B | =E2 _A4 | =D2 _E4 | z2 _d4- | d2 c4 | B2 c2 B2 | %45
w: do _ en|du- ra pri-|sión.|||y a-|ma co-|mo dios,|y-|* a-|ma co- mo|
 A4 z2 | z6 | z6 | z6 | z4 F2 | G2 _A2 G2 | F2 F3 _E | D2 C2 D2 | _E2 E2 c2- | cB B3 A | B6 | %56
w: dios.||||A-|do- ren los|hom- bres fi-|ne- zas de\_a-|mor, fi- ne-|* zas de a-|mor.|
 z2 _d2 d2- | d2 c_d cB | A2 B3 B | B2 A2 f2 | f2 _ed ef | d2 z2 g2 | g2 f_efg | _e2 f2 e2 | d6 | %65
w: que\_a- man-|* te\y _ des- *|nu- do y|des- nu- do\_en|du- ra _ pri- *|sión, en|du- ra, _ _ _|du- ra pri-|sión.|
 z2 f3 f | =B2 _e4 | A2 B4 | z2 _A3 A | _A2 G4 | F2 f3 f | _e4 f2 | d2 _e2 e2 | f4 z2 | z6 | %75
w: Llo- ra|co- mo|ni- ño|y\_a- ma|co- mo|dios, y\_a- ma|co- mo|dios, co- mo|dios.||
 z4 c2 | A2 B3 B | _E6 | z6 | z4 _e2 | c2 c2 c2 | _d6- | d2 c4 | z2 _A2 A2- | A2 G3 G | F6 | z6 | %87
w: en|tris- te do-|lor,||en|an- sias con-|stan-|* tes,|y\_en tier-|* no fer-|vor.||
 z6 | c2 _d4 | c4 c2 | B2 z2 _ee | A2 _d4 | G2 _A2 A2- | A_A G2 G2 | F6 | z2 B4 | _e6- | e2 _e4 | %98
w: |y\_a- ma|co- mo|dios, y a-|ma co-|mo dios, y\_a-|* ma co- mo|dios,|y|a-|* ma|
 =e2 f4 | B12 || z6 | z6 | z6 | z6 | z6 | z6 | z6 | z6 | z6 | z6 | z6 | z6 | z6 | z6 | z6 | z6 || %116
w: co- mo|dios.|||||||||||||||||
 z6 | z6 | z4 c2 | A2 B3 B | E4 z2 | z4 F2 | B2 _E3 E | F2 f3 f | =B2 _e4 | A2 B2 z2 | c2 F2 _A2- | %127
w: ||en|tris- te do-|lor,|en|tris- te do-|lor, llo- ra|co- mo|ni- ño|y\_a- ma co-|
 A2 G4 | (A2 B4) | E2 F2 _E2 | D6 || z6 | z4 F2 | G2 _E2 B2- | B2 _A3 A | G2 _E2 _e2- | e2 d4 | %137
w: * mo|dios, _|co- * mo|dios.||A-|do- ren dul-|* ces con-|go- jas[?] del|_ que|
 =B2 c2 c2- | c2 =B4 | c6 | z2 c2 c2 | f4 _e2 | d2 (c2 B2) | A2 F2 d2- | d2 c4 | A2 B2 B2- | %146
w: sien- do re-|* demp-|tor,|con ca-|de- nas|de ? _|_ _ se\_in-|* tro-|du- ce\_en la|
 B2 A4 | B6 || z4 f2 | d2 d2 d2 | _e6- | e2 d4 | z6 | z4 f2 | d2 _e3 e | A6 | d2 G2 _e2- | e2 d4 | %158
w: * pri-|sión.|Y\_en|no- ble sus-|pi-|* ro,||en|fi- na pa-|sión,|y\_a- ma co-|* mo|
 c2 c2 c2 | B2 z2 z2 | F2 B,2 B2- | B2 A4 | B6 || z6 | z6 | z6 | z6 | z6 | z6 | z6 | z6 | z6 | z6 | %173
w: dios, co- mo|dios,|y\_a- ma co-|* mo|dios.|||||||||||
 z6 | z6 | z6 | z6 | z6 | z6 | z6 || z6 | z6 | z6 | z4 B2 | G2 G2 G2 | _A6- | A2 G4 | z6 | z6 | %189
w: ||||||||||Y\_en|an- sias con-|stan-|* tes,|||
 z2 B3 B | =E2 _A4 | =D2 _E2 E2- | E2 D4 | C2 F4 | B,6 |] %195
w: llo- ra|co- mo|ni ño y\_a-|* ma|co- mo|dios.|
V:4
 z4 B,,2 | F,,4 F,2 |"^6" D,2 C,2"^6" D,2 | _E,4 E,2 | F,6 | B,,6 | _E,4"^6" E,2 | %7
 D,2"^76" C,2"^7" F,,2 | B,,4 B,2 |"^6" A,2 G,2 A,2 | B,3 _A, G,2 | F,2 _E,2 F,2 | %12
"^6" D,2 C,2"^6" D,2 | _E,6 | F,6 | B,,4 B,,2 | _E,,4"^6" E,,2 |"^654" F,,4 F,,2 | B,,4 B,,2 | %19
"^43" F,4 F,2 | D,2 _E,3 D, |"^7" C,2 F,,4 | G,,2"^6" C,4 | D,2 G,,4 |"^6" C,2"^6" D,4 | %25
"^7" _E,2 _A,,4 |"^7" B,,2 _E,4 | F,4 F,2 |"^65" D,2 D,C,D,_E, |"^6" D,2 _E,3 D, |"^7" C,2 F,,4 | %31
"^7" G,,2 C,4 | D,2 G,,4 |"^7" A,,2"^76" B,,4 | _E,2 _A,,4 | B,,2 _E,,4 | F,,6 | z2 F,3 F, | %38
 G,2 C,4 | F,2 B,,4 |"^7" C,2 F,,4 |"^7" B,,2 _E,,4 | F,,2 B,,4 |"^7" _E,,2 _A,,4 | %44
"^7" B,,2"^6" _E,,4 | F,,4 B,2 |"^6" _A,2 G,2 A,2 | B,2 B,3 _A, |"^6" G,4 G,2 | F,4 F,2 | %50
"^5" G,2 _A,2 G,2 | F,2 F,3 _E, |"^6" D,2 C,2 D,2 | _E,4 E,2 |"^654" F,4 F,2 | B,,6 | z2 B,,3 A,, | %57
"^65" G,,2 _A,,3 G,, |"^7" F,,2 B,,4 |"^7" C,2 F,,4 |"^7" G,,2"^6" C,4 | %61
"^7" D,2"^6" G,,2"^8" G,,2 |"^7" _A,,2 _D,4 |"^7" _E,2 _A,,4 | B,,2 B,,3 B,, | B,,2"^6" _A,,4 | %66
"^7" G,,2 C,4 |"^7" F,,2 B,,4 |"^7" C,2 F,,4 |"^7" B,,2 _E,,4 |"^7" F,,2 B,,4 |"^7" _E,,2 _A,,4 | %72
"^7" B,,2 _E,,4 | F,,4 F,,2 | B,,6 | _E,4"^6" E,2 |"^7" F,2 B,,4 | C,6 | F,4 F,2 | B,,2 _E,4 | %80
 F,6 | B,,4 B,,2 | _E,2 _A,,4 |"^7" B,,6 | B,,2 _E,4 | F,6 | z2 F,3 F, | G,2 C,4 |"^7" F,2 B,,4 | %89
"^7" C,2 F,,4 |"^7" B,,2 _E,,4 |"^7" F,,2 B,,4 | _E,,2 _A,,4 | B,,2 _E,,4 | F,,6 | z2 _E,,4- | %96
"^97" (E,,6 |"^86" _E,,2 E,,4) | =E,,2 F,,4 | B,,12 || B,,6 | _E,6 |"^6" D,6 | _E,6 |"^76" F,6 | %105
 G,2 C,4 | F,2 G,4 | C,2 C,2 C,2 | F,4"^6" _E,2 | D,2 D,2"^6" C,2 | B,,2 A,,2 G,,2 |"^6" F,,6 | %112
"^76" _E,6- |"^642" E,2"^6" D,4 | _E,2 F,4 | B,,4 B,,2 ||"^6" A,,2 A,,2 A,,2 | B,,6 | %118
 _E,4"^6" E,2 | F,2 B,,4 | C,6 | F,,6 | B,,2 _E,,4 | F,,4 F,,2 | G,,2 C,4 |"^7" F,,2 B,,4 | %126
 C,2 F,,4 | B,,2 _E,,4 |"^7" F,,2 B,,4 | C,2 F,,4 | B,,4 B,,2 || _E,,2 F,,4 | B,,4 B,,2 | _E,6 | %134
"^6" D,6 | _E,6 |"^76" F,6 | G,2 C,4 | F,2 G,4 | C,2 C,2 C,2 | F,4 _E,2 | D,2 D,2"^6" C,2 | %142
 B,,2 A,,2 G,,2 | F,,6 |"^76" _E,6- | E,2"^6" D,4 | _E,2 F,4 | B,,4 B,,2 ||"^6" A,,2 A,,2 A,,2 | %149
 B,,6 | _E,4 E,2 | F,2 B,,4 | C,6 | F,,6 | B,,2 _E,,4 | F,,4 F,,2 | G,,2 C,4 | F,,2 B,,4 | %158
 C,2 F,,4 |"^7" B,,2 _E,,4 | F,,2 B,,4 |"^7" C,2 F,,4 | B,,4 B,,2 || _E,,2 F,,4 | B,,4 B,,2 | %165
 _E,6 |"^6" D,6 | _E,6 |"^76" F,6 | G,2 C,4 | F,2 G,4 | C,4 C,2 | F,2 F,2"^6" _E,2 | D,2 D,2 C,2 | %174
 B,,2 A,,2 G,,2 | F,,6 |"^76" _E,6- |"^642" E,2 D,4 | _E,2 F,4 | B,,4 B,,2 ||"^6" A,,2 A,,2 A,,2 | %181
 B,,6 | _E,,4"^6" E,,2 |"^7" F,,2 B,,4 | C,6 | F,,6 | B,,2 _E,,4 | F,,6 | G,,2 C,4 | F,,2 B,,4 | %190
 C,2 F,,4 | B,,2 _E,,4 |"^7" F,,2 B,,4 | C,2 F,,4 | B,,6 |] %195

